X:652
T:Fraher's
R:Jig
P:APB The Chieftains
S:Mike Long
D:Chieftains
Z:Transcription, chords:Mike Long
M:6/8
L:1/8
K:G
A|\
"D"A2D "G/C"GED|"D"(D/E/D)D (F/E/D)D|"D"(A/B/A)A "C"GED|"D"(D/E/D)D DE(F/G/)|\
"D"A2d "G/C"GED|
"D"(D/E/D)D (F/E/D)D|"D"(A/B/c)A "C"GEA|"D"(D/E/D)D D2:|\
|:A|\
"D"(A/B/c)A d2A|"D"dcA "(Am)"AGE|
"C"GAB c2A|"G"BGE EDD|\
"D"Add def|"Am"dcA AGE|"C"(A/B/c)A "G"GEA|"D"(D/E/D)D D:|
